X: 15082
T: Farewell_my_Pretty_Moggie
%R: air, strathspey
B: James Oswald "The Caledonian Pocket Companion" v.1 b.5 p.8 #2
S: https://ia800501.us.archive.org/18/items/caledonianpocket01rugg/caledonianpocket01rugg_bw.pdf
Z: 2020 John Chambers <jc:trillian.mit.edu>
M: C
L: 1/16
K: G
%%slurgraces 1
%%graceslurs 1
"_Slow"(def2) |\
g4 (gab2) {a}g2e2{e}d2B2 | (TA3G)A2B2 (G2E2) G4 |\
g4 (gab2) {a}g2e2{e}d2B2 | TA3GA2B2 G6 :: g2 |\
d6 e2 (dB3) d4 | g4 (gab2) {b}a6 g2 |
e4 (de)g2 {e}d2B2 {B}A2G2 | E4 (c3B) {B}A6 B2 |\
G2D2G2A2 B4 g3f | {f}e6 d2 (eg)(fa) (gb)(ac') |\
b6 a2 g2e2 (deg2) | (dB3) {B}A3G G6 :|


